X: 175
T: 176. Erstanden ist der heil'ge Christ
N: Derived from chor176.krn
C: Johann Sebastian Bach
%%abc-version 2.0
%%abcx-abcm2ps-target-version 5.9.1 (29 Sep 2008)
%%abc-creator hum2abc beta
%%abcx-conversion-date 2019/03/11 17:28:18
%%abc-edited-by Craig Stuart Sapp
%%humdrum-veritas 1739392753
%%humdrum-veritas-data 1367839373
%%
%%barnumbers 0
L: 1/8
M: 3/4
%%staves [1 2 3 4]
V: 1 clef=treble
V: 2 clef=treble
V: 3 clef=treble-8
V: 4 clef=bass
K: F
[V:1] F2 [I:setbarnb 1]| 
[V:2] C2 | 
[V:3] A2 | 
[V:4] F,,2 | 
[V:1] F3GAB | 
[V:2] C2DEF2- | 
[V:3] ABAGF2 | 
[V:4] F,3E,D,2 | 
[V:1] c4G2 | 
[V:2] F2EFG2- | 
[V:3] G4c2 | 
[V:4] C,3D,E,C, | 
[V:1] A4=B2 | 
[V:2] GEF4- | 
[V:3] c4d2 | 
[V:4] F,3E,D,2 | 
[V:1] !fermata!c4_B2 | 
[V:2] !fermata!F2E2G2- | 
[V:3] !fermata!G4c2 | 
[V:4] !fermata!C,4E,2 | 
[V:1] A3GAB | 
[V:2] G2F4 | 
[V:3] cAd4 | 
[V:4] F,3E,D,2 | 
[V:1] c4B2 | 
[V:2] GFGA- AG- | 
[V:3] cde2d2 | 
[V:4] E,3^F,G,2 | 
[V:1] A4G2 | 
[V:2] G=F/E/F2-FE/D/ | 
[V:3] d2A2D2 | 
[V:4] D,3C,B,,2 | 
[V:1] !fermata!A4A2 | 
[V:2] !fermata!^C4D2 | 
[V:3] !fermata!E4F2 | 
[V:4] !fermata!A,,4D,2 | 
[V:1] =c4B2 | 
[V:2] E3FG2- | 
[V:3] A2=c4- | 
[V:4] A,A,, A,G,F,E, | 
[V:1] A4G2 | 
[V:2] G2F2E2- | 
[V:3] cAdcB2 | 
[V:4] F,F,, F,E,D,^C, | 
[V:1] F4E2 | 
[V:2] E2D2CB, | 
[V:3] AFBAG2 | 
[V:4] D,2B,,2=C,2 | 
[V:1] !fermata!F4F2 | 
[V:2] !fermata!A,4D2 | 
[V:3] !fermata!F4A2 | 
[V:4] !fermata!D,4D,C, | 
[V:1] GFGAB2 | 
[V:2] D2EF DE | 
[V:3] G2c2B2 | 
[V:4] B,,3A,,G,,2 | 
[V:1] A4G2 | 
[V:2] F4E2- | 
[V:3] ABc2-cB | 
[V:4] F,,G,, A,,B,,C,2 | 
[V:1] F4E2 | 
[V:2] E2D2C2 | 
[V:3] A2BA GB | 
[V:4] D,C,B,,2C,2 | 
[V:1] !fermata!F4 |]  
[V:2] !fermata!C4 |]  
[V:3] !fermata!A4 |]  
[V:4] !fermata!F,,4 |]  



